X: 17033
T: Hearty Boys Of Ballymote, The
R: jig
M: 6/8
K: Edorian
|:F|GEE ,BEE|FEF DFA|GEE ,BEE|FED E2 F|
GEE ,BEE|FEF DFA|Bee B/c/dB|AFD E2:|
|:c|d3 dcB|AFD FGA|Bee ede|fed B2 c|
d3 dcB|AFD FGA|Bee BdB|AFD E2:|

